images/themes/sigpacgo/nodpi/ic_speaker_white_24dp.svg

<svg xmlns="http://www.w3.org/2000/svg" xmlns:xlink="http://www.w3.org/1999/xlink" width="24" height="24" viewBox="0 0 24 24">
<path fill-rule="nonzero" fill="rgb(100%, 100%, 100%)" fill-opacity="1" d="M 18 11 C 18 11.671875 18 12.328125 18 13 C 19.199219 13 20.761719 13 22 13 C 22 12.328125 22 11.671875 22 11 C 20.761719 11 19.199219 11 18 11 Z M 18 11 "/>
<path fill-rule="nonzero" fill="rgb(100%, 100%, 100%)" fill-opacity="1" d="M 16 17.609375 C 16.960938 18.320312 18.210938 19.261719 19.199219 20 C 19.601562 19.46875 20 18.929688 20.398438 18.398438 C 19.410156 17.660156 18.160156 16.71875 17.199219 16 C 16.800781 16.539062 16.398438 17.078125 16 17.609375 Z M 16 17.609375 "/>
<path fill-rule="nonzero" fill="rgb(100%, 100%, 100%)" fill-opacity="1" d="M 20.398438 5.601562 C 20 5.070312 19.601562 4.53125 19.199219 4 C 18.210938 4.738281 16.960938 5.679688 16 6.398438 C 16.398438 6.929688 16.800781 7.46875 17.199219 8 C 18.160156 7.28125 19.410156 6.351562 20.398438 5.601562 Z M 20.398438 5.601562 "/>
<path fill-rule="nonzero" fill="rgb(100%, 100%, 100%)" fill-opacity="1" d="M 4 9 C 2.898438 9 2 9.898438 2 11 L 2 13 C 2 14.101562 2.898438 15 4 15 L 5 15 L 5 19 L 7 19 L 7 15 L 8 15 L 13 18 L 13 6 L 8 9 Z M 9.03125 10.710938 L 11 9.53125 L 11 14.46875 L 9.03125 13.289062 L 8.550781 13 L 4 13 L 4 11 L 8.550781 11 Z M 9.03125 10.710938 "/>
<path fill-rule="nonzero" fill="rgb(100%, 100%, 100%)" fill-opacity="1" d="M 15.5 12 C 15.5 10.671875 14.921875 9.46875 14 8.648438 L 14 15.339844 C 14.921875 14.53125 15.5 13.328125 15.5 12 Z M 15.5 12 "/>
</svg>

<svg xmlns="http://www.w3.org/2000/svg" enable-background="new 0 0 24 24" height="24px" viewBox="0 0 24 24" width="24px" fill="#FFFFFF"><g><rect fill="none" height="24" width="24"/></g><path d="M18,11c0,0.67,0,1.33,0,2c1.2,0,2.76,0,4,0c0-0.67,0-1.33,0-2C20.76,11,19.2,11,18,11z"/><path d="M16,17.61c0.96,0.71,2.21,1.65,3.2,2.39c0.4-0.53,0.8-1.07,1.2-1.6c-0.99-0.74-2.24-1.68-3.2-2.4 C16.8,16.54,16.4,17.08,16,17.61z"/><path d="M20.4,5.6C20,5.07,19.6,4.53,19.2,4c-0.99,0.74-2.24,1.68-3.2,2.4c0.4,0.53,0.8,1.07,1.2,1.6 C18.16,7.28,19.41,6.35,20.4,5.6z"/><path d="M4,9c-1.1,0-2,0.9-2,2v2c0,1.1,0.9,2,2,2h1v4h2v-4h1l5,3V6L8,9H4z M9.03,10.71L11,9.53v4.94l-1.97-1.18L8.55,13H8H4v-2h4 h0.55L9.03,10.71z"/><path d="M15.5,12c0-1.33-0.58-2.53-1.5-3.35v6.69C14.92,14.53,15.5,13.33,15.5,12z"/></svg>
